X: 6
T: The High
R: reel
M: 4/4
L: 1/8
K: Amix
|:a2 fa eA A2|cAeA fAeA|a2 fa eA A2|Bcdc BG G2|
a2 fa eA A2|(3Bcd ef g2fg|afge fdec|dfed cA A2:||
|:cAeA fAeA|cAaf eA A2 |cAeA fAeA|(3Bcd gd BG G2|
cAeA fAeA|(3Bcd ef g2 fg|afge fdec|dfed cA A2:||


Tune 44	Setting 12469

